X:1
T:Title
%%score { 1 | 2 }
L:1/8
M:4/4
K:G
V:1 treble nm="Grand Piano"
V:2 bass 
V:1
 z4 z2 z[Q:1/4=100] G | G2 DD G2 AG | F2 F[EG] [FA]3 [FA] | B2 GB d2 BB | A2 B^c [Fd]3 [Fd] | %5
 d2 Bd [Bd] [Ac]2 [Ac] | [Ac]2 [FA][Ac] [GB]3 [Gd] | [Ge]2 [EGc][CEA] [B,DG] [B,D]2 [B,DG] | %8
[M:7/8] [A,DF]2 [DFB] [CFA] [B,G]3 |[M:1/8] [B,G] |[M:4/4] [FA]2 [FA]>[FA] [Ac]3 [FA] | %11
 B2 G>B d3 d/d/ | [Ge]2 [Ge]>[Gd] ^c2 [GB][Gc] | [Fd]6 z c/c/ | E2 FG A3 B/B/ | %15
 [B,D]2 [DG]A B3 [GB]/[GB]/ | [Gc]2 [Gd][Ge] [B,G] [DGB]2 [CFA] | [B,G]6 z2 |] %18
V:2
 z4 z2 z [G,B,D] | [G,B,D]2 [G,B,][G,B,] [G,B,D]2 [G,CD][G,B,D] | %2
 [D,A,D]2 [D,A,D][D,A,] [D,D]3 [D,D] | [G,DG]2 [G,B,][G,DG] [G,B,G]2 [G,DG][G,DG] | %4
 [A,DF]2 [A,G][A,G][K:bass] [D,A,]3 [D,C] | [G,B,G]2 [G,DG][G,B,G][K:bass] [D,D] [D,D]2 [D,D] | %6
 [D,D]2 [D,D][D,D] [G,D]3 [G,B,] | [C,C]2 C,C, D, D,2 D, |[M:7/8] D,2 D, D, G,3 |[M:1/8] G, | %10
[M:4/4] [D,D]2 [D,D]>[D,D] [D,D]3 [D,D] | [G,DG]2 [G,B,]>[G,DG] [G,B,G]3 [G,B,G]/[G,B,G]/ | %12
 [E,B,]2 [E,B,]>[E,B,] [A,G]2 [A,,A,][A,,A,] | [D,A,]6 z [D,F,D]/[D,F,D]/ | %14
 [D,A,C]2 [D,A,C][D,G,B,] [D,F,C]3 [D,F,D]/[D,F,D]/ | %15
 [G,,G,]2 [B,,G,][D,F,D] [G,D]3 [=F,D]/[F,D]/ | [E,C]2 [D,B,][C,C] D, D,2 D, | G,6 z2 |] %18

